teeny/outline/flag-alt.svg

<svg width="15" height="15" viewBox="0 0 15 15" fill="none" xmlns="http://www.w3.org/2000/svg">
<path d="M12.5 6.5L12.7236 6.94721C12.8868 6.8656 12.9926 6.70154 12.9996 6.51919C13.0066 6.33683 12.9137 6.16514 12.7572 6.07125L12.5 6.5ZM2.5 0.5L2.75725 0.0712535C2.60278 -0.0214257 2.4104 -0.0238528 2.25365 0.0649C2.0969 0.153653 2 0.319864 2 0.5L2.5 0.5ZM12.7572 6.07125L2.75725 0.0712535L2.24275 0.928746L12.2428 6.92875L12.7572 6.07125ZM2 0.5V11.5H3V0.5H2ZM2.72361 11.9472L12.7236 6.94721L12.2764 6.05279L2.27639 11.0528L2.72361 11.9472ZM3 15V11.5H2V15H3Z" fill="black"/>
</svg>

<svg viewBox="0 0 15 15" xmlns="http://www.w3.org/2000/svg"><path d="M12.5 6.5l.22.44c.16-.09.26-.25.27-.43 0-.19-.09-.36-.25-.45l-.26.42Zm-10-6l.25-.43c-.16-.1-.35-.1-.51-.01 -.16.08-.26.25-.26.43h.5Zm10.25 5.57l-10-6 -.52.85 10 6 .51-.86ZM1.99.49v11h1v-11h-1Zm.72 11.44l9.99-5 -.45-.9 -10.01 5 .44.89Zm.27 3.05v-3.5h-1v3.5h1Z"/></svg>
